assets/edit.svg

<?xml version="1.0" encoding="UTF-8"?>
<svg width="21px" height="21px" viewBox="0 0 21 21" version="1.1" xmlns="http://www.w3.org/2000/svg" xmlns:xlink="http://www.w3.org/1999/xlink">
    <!-- Generator: Sketch 51.2 (57519) - http://www.bohemiancoding.com/sketch -->
    <title>edit</title>
    <desc>Created with Sketch.</desc>
    <defs></defs>
    <g id="Page-1" stroke="none" stroke-width="1" fill="none" fill-rule="evenodd">
        <g id="Profile" transform="translate(-472.000000, -854.000000)" fill="#656589">
            <g id="edit" transform="translate(472.000000, 854.000000)">
                <g id="Group">
                    <path d="M20.1529412,19.4384615 L0.847058824,19.4384615 C0.441176471,19.4384615 0.123529412,19.7794872 0.123529412,20.174359 C0.123529412,20.5692308 0.458823529,20.9102564 0.847058824,20.9102564 L20.1705882,20.9102564 C20.5764706,20.9102564 20.8941176,20.5692308 20.8941176,20.174359 C20.8941176,19.7794872 20.5588235,19.4384615 20.1529412,19.4384615 L20.1529412,19.4384615 Z" id="Shape"></path>
                    <path d="M0.123529412,12.9230769 L0.105882353,16.4230769 C0.105882353,16.6205128 0.176470588,16.8179487 0.317647059,16.9615385 C0.458823529,17.1051282 0.635294118,17.1769231 0.829411765,17.1769231 L4.25294118,17.1589744 C4.44705882,17.1589744 4.62352941,17.0871795 4.76470588,16.9435897 L16.5882353,4.91794872 C16.8705882,4.63076923 16.8705882,4.16410256 16.5882353,3.85897436 L13.2,0.376923077 C12.9176471,0.0897435897 12.4588235,0.0897435897 12.1588235,0.376923077 L9.79411765,2.8 L0.335294118,12.4025641 C0.211764706,12.5461538 0.123529412,12.725641 0.123529412,12.9230769 L0.123529412,12.9230769 Z M12.6882353,1.95641026 L15.0705882,4.37948718 L13.7294118,5.74358974 L11.3470588,3.32051282 L12.6882353,1.95641026 L12.6882353,1.95641026 Z M1.58823529,13.2461538 L10.3058824,4.37948718 L12.6882353,6.8025641 L3.97058824,15.6512821 L1.57058824,15.6692308 L1.58823529,13.2461538 L1.58823529,13.2461538 Z" id="Shape"></path>
                </g>
            </g>
        </g>
    </g>
</svg>

<?xml version="1.0" encoding="UTF-8"?>
<svg version="1.1" viewBox="0 0 21 21" xmlns="http://www.w3.org/2000/svg">
<title>edit</title>
<desc>Created with Sketch.</desc>
<g fill="none" fill-rule="evenodd">
<g transform="translate(-472 -854)" fill="#656589">
<g transform="translate(472 854)">
<path d="m20.153 19.438h-19.306c-0.40588 0-0.72353 0.34103-0.72353 0.7359s0.33529 0.7359 0.72353 0.7359h19.324c0.40588 0 0.72353-0.34103 0.72353-0.7359s-0.33529-0.7359-0.74118-0.7359z"/>
<path d="m0.12353 12.923l-0.017647 3.5c0 0.19744 0.070588 0.39487 0.21176 0.53846 0.14118 0.14359 0.31765 0.21538 0.51176 0.21538l3.4235-0.017949c0.19412 0 0.37059-0.071795 0.51176-0.21538l11.824-12.026c0.28235-0.28718 0.28235-0.75385 0-1.059l-3.3882-3.4821c-0.28235-0.28718-0.74118-0.28718-1.0412 0l-2.3647 2.4231-9.4588 9.6026c-0.12353 0.14359-0.21176 0.32308-0.21176 0.52051zm12.565-10.967l2.3824 2.4231-1.3412 1.3641-2.3824-2.4231 1.3412-1.3641zm-11.1 11.29l8.7176-8.8667 2.3824 2.4231-8.7176 8.8487-2.4 0.017949 0.017647-2.4231z"/>
</g>
</g>
</g>
</svg>
